X: 41137
T: Trip To Windsor, The
R: reel
M: 4/4
K: Amajor
(3EFG|AA3 ABce|f3e f3g|agfe fgaf|ecBA AFEF|
AA3 ABce|f3e f3g|agfe fgaf|ecBd cA A2||
efec e2 ae|(3fga ec B3c|AFEc EFAE|(3FGA Ec B3c|
A2 cE FEcE|AEcB Aceg|agfe fgaf|ecBd cA A2||

